X: 8578
T: Croen A Ddafad Felan
R: polka
M: 2/4
K: Gmajor
|:G>AB>c d2d2|c>Bc>A d2d2|c>BA>A B>AG>G|1 A>GF>G A2D2:|2 A>Ad>d G2G2||
g>fe>g f2f2|c>Bc>A d4|e>dc>e d2B2|G>AB>G A4|g>fe>g f2f2|e>dc>e d4|c>BA>c B>AG>B|A2F2 G4||

